X: 43
T: Pollonesse #43
M: 3/4
L: 1/16
K: G
Q:110
|[g3B3D3G,3]d BGBA G4|BGAB cdef d4|fdef g2e2 a2f2|ge^ce d4D4|
|g3d BGcA G4|BGAB c2e2 d4|BGAB cdef g3d|cAFD G4G,4:|
|:g2ab a3g f3d|efge c2e2 d4|c2de d2c2 B2G2|ABcA F2A2 G4|
|B,4 ^C4 D4|BAGB c2e2d4|BGAB cdef g2B2|cBcA G4G,4:|

